X:1
T: Alasdair an Duin
C:
R:Reel
I:speed 232
Q:232
K:Gm
M:4/4
L:1/8
|:z2|G4B4|A2F2 G4|c2cc F2F2|c2cc F2F2|
G4B4|B2AG A2c2|d3B c2A2|G4g2:|
|:z2|d3c G2Bc|d2c2 G4|c3A F2AB|c2A2 F4|
d3c G2Bc|d2c2 G2Bc|d2B2 c2A2|G4G2:|
